web/ui/src/components/theme/message-box/svgs/error.svg

<svg height="24" viewBox="0 0 24 24" width="24" xmlns="http://www.w3.org/2000/svg"><g fill="none" fill-rule="evenodd"><path d="m0 0h24v24h-24z" fill="#000" fill-rule="nonzero" opacity="0"/><path d="m18.8369116 6.13121405c.8580182.85801825 1.5212166 1.858404 1.9730702 2.97175314.4371516 1.07579061.6582338 2.21369911.656517 3.38117951.0016208 1.1673846-.2193653 2.305389-.6566129 3.3811077-.4518536 1.1133731-1.1149081 2.1138068-1.9728544 2.9717291-.8579703.8579703-1.8584759 1.5210967-2.9718251 1.9729504-1.0756947.4372235-2.2136991.6582337-3.3810836.6566117-1.1673845.001622-2.3054369-.2193402-3.38108364-.6566117-1.11337313-.4518057-2.1138788-1.1149081-2.97189706-1.9729504-.85792233-.8578983-1.52097677-1.858356-1.97280644-2.9717291-.43727154-1.0756707-.65823373-2.2137231-.65661259-3.3811077-.00169309-1.1674804.21936502-2.3053889.65651666-3.38117951.45187762-1.11332517 1.115052-2.11373489 1.97304628-2.97172917.85792233-.85792233 1.85828409-1.5210727 2.97163324-1.97292635 1.07579065-.43715161 2.21369915-.65823373 3.38117955-.65654064 1.1675044-.00169309 2.305389.21938903 3.3812036.65654064 1.1133251.45180567 2.1137108 1.11498005 2.9716092 1.97290238m1.0607528-1.06075282c-4.0939523-4.0939523-10.73313096-4.0939523-14.82708326.00002397-4.0940722 4.09407223-4.0940962 10.7332269-.00014391 14.8271792 4.09409621 4.0940962 10.73325087 4.0940482 14.82732307 0 4.0939763-4.0939523 4.0939763-10.73310697-.0000959-14.82720317zm-6.3369356 7.45824727 3.7408158-3.7407917-1.0599134-1.05993736-3.7408158 3.74081576-3.72992706-3.72990316-1.06276743 1.06276744 3.72990309 3.72992712-3.67646733 3.6764673 1.05940971 1.0594098 3.67649132-3.6764914 3.6880995 3.6880515 1.0625036-1.0625036z" fill="#ff4d4f"/></g></svg>

<?xml version="1.0" encoding="UTF-8"?>
<svg width="24px" height="24px" viewBox="0 0 24 24" version="1.1" xmlns="http://www.w3.org/2000/svg" xmlns:xlink="http://www.w3.org/1999/xlink">
    <title>mag_icon_error_default</title>
    <g id="页面-1" stroke="none" stroke-width="1" fill="none" fill-rule="evenodd">
        <g id="系统设计规范" transform="translate(-1474.000000, -5456.000000)">
            <g id="mag_icon_error_default" transform="translate(1474.000000, 5456.000000)">
                <rect id="矩形" fill="#000000" fill-rule="nonzero" opacity="0" x="0" y="0" width="24" height="24"></rect>
                <path d="M18.8369116,6.13121405 C19.6949298,6.9892323 20.3581282,7.98961805 20.8099818,9.10296719 C21.2471334,10.1787578 21.4682156,11.3166663 21.4664988,12.4841467 C21.4681196,13.6515313 21.2471335,14.7895357 20.8098859,15.8652544 C20.3580323,16.9786275 19.6949778,17.9790612 18.8370315,18.8369835 C17.9790612,19.6949538 16.9785556,20.3580802 15.8652064,20.8099339 C14.7895117,21.2471574 13.6515073,21.4681676 12.4841228,21.4665456 C11.3167383,21.4681676 10.1786859,21.2472054 9.10303916,20.8099339 C7.98966603,20.3581282 6.98916036,19.6950258 6.1311421,18.8369835 C5.27321977,17.9790852 4.61016533,16.9786275 4.15833566,15.8652544 C3.72106412,14.7895837 3.50010193,13.6515313 3.50172307,12.4841467 C3.50002998,11.3166663 3.72108809,10.1787578 4.15823973,9.10296719 C4.61011735,7.98964202 5.27329173,6.9892323 6.13128601,6.13123802 C6.98920834,5.27331569 7.9895701,4.61016532 9.10291925,4.15831167 C10.1787099,3.72116006 11.3166184,3.50007794 12.4840988,3.50177103 C13.6516032,3.50007794 14.7894878,3.72116006 15.8653024,4.15831167 C16.9786275,4.61011734 17.9790132,5.27329172 18.8369116,6.13121405 M19.8976644,5.07046123 C15.8037121,0.976508929 9.16453344,0.976508929 5.07058114,5.0704852 C0.976508938,9.16455743 0.976484938,15.8037121 5.07043723,19.8976644 C9.16453344,23.9917606 15.8036881,23.9917126 19.8977603,19.8976644 C23.9917366,15.8037121 23.9917366,9.16455743 19.8976644,5.07046123 L19.8976644,5.07046123 L19.8976644,5.07046123 Z M13.5607288,12.5287085 L17.3015446,8.7879168 L16.2416312,7.72797944 L12.5008154,11.4687952 L8.77088834,7.73889204 L7.70812091,8.80165948 L11.438024,12.5315866 L7.76155667,16.2080539 L8.82096638,17.2674637 L12.4974577,13.5909723 L16.1855572,17.2790238 L17.2480608,16.2165202 L13.5607288,12.5287085 Z" id="形状" fill="#FF4D4F"></path>
            </g>
        </g>
    </g>
</svg>
